icons/fill-ele-other-movie-ticket.svg

<svg xmlns="http://www.w3.org/2000/svg" width="32px" height="32px" viewBox="0 0 32 32" version="1.1">
    <title>fill-ele-other-movie-ticket</title>
    <g id="fill-ele-other-movie-ticket" stroke-width="1" fill-rule="evenodd">
        <path d="M20,6 L20,11 L22,11 L22,6 L29,6 C29.5522847,6 30,6.44771525 30,7 L30,12 C27.790861,12 26,13.790861 26,16 C26,18.209139 27.790861,20 30,20 L30,25 C30,25.5522847 29.5522847,26 29,26 L22,26 L22,21 L20,21 L20,26 L3,26 C2.44771525,26 2,25.5522847 2,25 L2,20 C4.209139,20 6,18.209139 6,16 C6,13.790861 4.209139,12 2,12 L2,7 C2,6.44771525 2.44771525,6 3,6 L20,6 Z M22,13 L20,13 L20,19 L22,19 L22,13 Z" id="&#24418;&#29366;" />
    </g>
</svg>

<svg xmlns="http://www.w3.org/2000/svg" viewBox="0 0 32 32"><path fill="currentColor" d="M20 6v5h2V6h7a1 1 0 0 1 1 1v5a4 4 0 1 0 0 8v5a1 1 0 0 1-1 1h-7v-5h-2v5H3a1 1 0 0 1-1-1v-5a4 4 0 1 0 0-8V7a1 1 0 0 1 1-1zm2 7h-2v6h2z"/></svg>
